!! 00026] TT[TB
!! Eigene Aufnahme
!!!OTL: Xiao He tang shui  (Midu Shangge)
!!!ARE: Asia, China,Yunnan, Midu
!! Ethnic Group: Han
!! II, 66
!!!SCT: C0208
!!!YEM: Copyright 1995, estate of Helmut Schaffrath.
**kern
*ICvox
*Ivox
!! Mixed meters:  2/4; 3/4; 4/4
*M3/4
*k[b-e-]
*B-:
{2.gg}
=1
*M2/4
{8gg
8bb-
8ccc
8ddd
=2
*M3/4
8ddd
4.ccc
8bb-
8gg
=3
8ddd
[8ccc
2ccc]
=4
2.gg}
=5
{8gg
8bb-
8gg
8ff
8dd
8cc
=6
*M2/4
2gg
=7
8gg
8ff
8dd
8cc
=8
*M4/4
1g}
=9
*M2/4
{8gg
8ccc
8ccc
8gg
=10
*M3/4
8ddd
4.ccc
8bb-
8gg
=11
8ddd
[8ccc
2ccc]
=12
*M2/4
2gg}
=13
{4.ccc
8gg
=14
8ddd
4ccc
16bb-
16gg
=15
8ddd
4.ccc
=16
*M3/4
2.gg}
=17
{8gg
8bb-
8gg
8ff
8dd
8cc
=18
2.gg
=19
*M2/4
8gg
8ff
8dd
8cc
=20
1g}
==
!!!AGN: Shange
!! Die Saengerin Lei Huilan ist Angehoerige der Zhuang Minderheit und
!!    studiert an der Guangzhouer Musikhochschule.
!!    aufgenommen am 5.5.87 (wird haeufig arrangiert).
!!    +++ Fehlerhaft! +++ Noten gem. Susi aendern!! +++
!!    +++AUCH AUF KASSETTE 2 = 47, CUT 1 (A-Seite)
!!    Wenig Verzierungen.
!!!ONB: ESAC (Essen Associative Code) Database: CHINA_092
!!!AMT: irregular
!!!AIN: vox
!!!EED: Helmut Schaffrath
!!!EEV: 1.0
*-
